assets/efishery/ikan-streamline-nila.svg

<svg width="24" height="25" viewBox="0 0 24 25" fill="none" xmlns="http://www.w3.org/2000/svg">
<path fill-rule="evenodd" clip-rule="evenodd" d="M16.7544 12.3245C16.7941 12.2717 16.8225 12.2119 16.8387 12.1489C16.8719 12.021 16.8545 11.8801 16.779 11.759C16.633 11.5247 16.3246 11.4531 16.0903 11.5991C15.4072 12.0251 15.0621 12.6423 14.9354 13.2808C14.6326 13.1729 14.2767 13.0808 13.9045 13.0425C13.2732 12.9773 12.5159 13.0605 11.9197 13.5854C11.7418 13.7419 11.6982 14.0017 11.8153 14.2078C12.2744 15.0161 13.569 16.0332 15.2757 15.9453C15.347 15.9417 15.4142 15.9231 15.4741 15.8931C15.6123 16.1006 15.7689 16.2786 15.9381 16.4138C16.1538 16.5864 16.4684 16.5515 16.6409 16.3359C16.8135 16.1201 16.7784 15.8057 16.5629 15.6331C16.2803 15.407 15.9484 14.7998 15.8866 14.1042C15.8273 13.4368 16.0249 12.8184 16.6193 12.4478C16.6731 12.4143 16.7184 12.3721 16.7544 12.3245ZM14.4067 14.1599C14.5978 14.2166 14.7698 14.2842 14.9078 14.3489C14.9349 14.5522 14.9792 14.7549 15.0382 14.9504C14.1341 14.9407 13.4123 14.519 12.9934 14.1033C13.1377 14.0557 13.2955 14.0303 13.4634 14.0244C13.5723 14.0205 13.6854 14.0251 13.8018 14.0371C14.0122 14.0588 14.2186 14.104 14.4067 14.1599Z" fill="#1D1D1D"/>
<path d="M18.75 13.5234C19.0261 13.5234 19.25 13.2996 19.25 13.0234C19.25 12.7473 19.0261 12.5234 18.75 12.5234C18.4739 12.5234 18.25 12.7473 18.25 13.0234C18.25 13.2996 18.4739 13.5234 18.75 13.5234Z" fill="#1D1D1D"/>
<path fill-rule="evenodd" clip-rule="evenodd" d="M14.7489 5.27344C13.1002 5.27344 11.3623 5.81738 9.98901 6.47119C9.29723 6.80078 8.67675 7.16797 8.18676 7.52905C7.72594 7.86865 7.28747 8.26929 7.07812 8.68799C6.82055 9.20312 6.90331 9.70972 7.16698 10.0996C7.25903 10.2358 7.36974 10.354 7.48681 10.4561C7.59081 10.5466 7.6997 10.6245 7.80505 10.6912C7.29028 11.0225 6.83886 11.3823 6.47594 11.7566C5.97363 11.6968 5.41125 11.4819 4.85461 11.1694C4.20409 10.8042 3.63366 10.3464 3.28027 9.99316C3.01574 9.72852 2.59679 9.69946 2.29821 9.9248C2.17333 10.019 2.05883 10.1255 1.95422 10.2415C1.81274 10.3984 1.6892 10.5728 1.58239 10.7585C1.45959 10.9724 1.35888 11.2014 1.27831 11.4363C1.07348 12.0337 0.980461 12.7197 1.00341 13.4229C1.04894 14.822 1.55846 16.3926 2.71972 17.5537C2.86864 17.7029 3.07348 17.7822 3.28393 17.7727C3.37646 17.7686 3.4663 17.7473 3.54931 17.7112C3.65539 17.665 3.75048 17.5945 3.82616 17.5037L3.91637 17.395L3.91821 17.3928C4.32616 16.9023 4.73754 16.4077 5.19994 16.061C5.67614 15.7039 6.08556 15.5925 6.51281 15.7349C6.54394 15.7451 6.57519 15.7534 6.60656 15.7595C6.66833 15.8145 6.73217 15.8689 6.79821 15.9226C6.55871 16.176 6.29894 16.4739 6.06408 16.8125C5.86767 17.0957 5.68871 17.4072 5.5537 17.7449C5.41894 18.0818 5.54479 18.467 5.85253 18.6594C7.59753 19.75 9.13683 19.9321 10.3791 19.6267C11.4558 19.3618 12.2469 18.7456 12.7106 18.1631C13.2878 18.2346 13.88 18.2734 14.4785 18.2734C14.86 18.2734 15.2352 18.2546 15.6029 18.2197L14.85 19.2236C14.7512 19.3552 14.7246 19.5256 14.7748 19.679C14.7823 19.7021 14.7916 19.7249 14.8027 19.7471C14.8874 19.9165 15.0607 20.0237 15.25 20.0237C18.3791 20.0237 19.717 18.0164 20.1625 16.8542C20.2228 16.8218 20.2822 16.7893 20.3409 16.7563C21.0933 16.334 21.7268 15.8564 22.1833 15.3752C22.6073 14.9282 23 14.3508 23 13.7339C23 13.5151 22.9502 13.3035 22.876 13.1082C22.8627 13.073 22.8485 13.0386 22.8337 13.0046C22.8103 12.9507 22.7853 12.8984 22.7591 12.8477C22.6215 12.5796 22.4308 12.3113 22.2062 12.052C21.7567 11.5332 21.1288 11.001 20.3763 10.5222C19.7164 10.1023 18.9454 9.71436 18.0924 9.41089C18.0704 9.25244 18.0655 9.08179 18.0593 8.85889C18.056 8.73975 18.0522 8.60571 18.0452 8.45044C18.0271 8.05151 17.9852 7.5603 17.8204 7.08862C17.6495 6.59912 17.342 6.11914 16.801 5.77393C16.2721 5.43652 15.5907 5.27344 14.7489 5.27344ZM16.3286 18.9187L17.0174 18.0002C17.5854 17.8779 18.1267 17.7192 18.6344 17.5349C18.1684 18.1199 17.4386 18.6902 16.3286 18.9187ZM10.8669 17.8147C9.97301 17.5859 9.1466 17.2837 8.42773 16.9353L8.3474 16.896C8.29967 16.8726 8.25231 16.8486 8.20531 16.8245L8.07787 16.7576C8.03307 16.8032 7.9884 16.8491 7.94396 16.8958C7.81591 17.0295 7.69006 17.167 7.57104 17.3091C7.5133 17.3779 7.45727 17.448 7.40331 17.5193C7.35131 17.5879 7.30138 17.6577 7.2539 17.7288C8.41943 18.311 9.3435 18.3367 10.021 18.1702C10.3464 18.0901 10.6293 17.9622 10.8669 17.8147ZM4.12035 12.4775C4.56823 12.729 5.07348 12.9587 5.60278 13.1062C5.53722 13.3093 5.49999 13.5193 5.49999 13.7339C5.49999 13.9082 5.52441 14.0776 5.5686 14.2412C5.08947 14.3525 4.66259 14.5889 4.29992 14.8608C3.91369 15.1506 3.56322 15.5085 3.26 15.8503C2.77221 15.104 2.53002 14.2158 2.50256 13.374C2.48486 12.8271 2.55907 12.3257 2.69714 11.9231C2.7384 11.803 2.78368 11.6958 2.83166 11.6011C3.20397 11.9023 3.64416 12.2102 4.12035 12.4775ZM9.2655 9.71753L9.28527 9.72388C9.44482 9.65283 9.66906 9.56006 9.95702 9.45728C10.5655 9.23975 11.458 8.97803 12.6249 8.78369C13.8197 8.58447 15.0304 8.58618 15.9299 8.63452C16.1575 8.64673 16.3667 8.66187 16.5526 8.67798L16.5467 8.51831C16.53 8.15161 16.4943 7.84082 16.4044 7.58325C16.3207 7.34351 16.1963 7.16748 15.9944 7.03857C15.7801 6.90186 15.4071 6.77344 14.7489 6.77344C13.3976 6.77344 11.8856 7.22949 10.6339 7.82568C10.3304 7.96997 10.0474 8.12036 9.7904 8.27075C9.5216 8.42822 9.28149 8.58569 9.07665 8.73657C8.92138 8.85107 8.79784 8.95337 8.70153 9.04126C8.57519 9.15649 8.4956 9.24683 8.45226 9.30713C8.49987 9.35205 8.58422 9.41577 8.71874 9.48853C8.89721 9.58472 9.09911 9.6626 9.2655 9.71753ZM6.99999 13.7339C6.99999 13.5903 7.09814 13.2925 7.48388 12.8735C7.85192 12.4739 8.40807 12.0464 9.11816 11.6533C10.5381 10.8669 12.4712 10.2734 14.4785 10.2734C16.4571 10.2734 18.2623 10.9551 19.5712 11.7878C20.2252 12.2039 20.7353 12.6453 21.0724 13.0342C21.1766 13.1545 21.2601 13.2651 21.3252 13.364L21.35 13.4026L21.3743 13.4421C21.3876 13.4644 21.3998 13.4858 21.411 13.5066L21.425 13.5332C21.4361 13.5547 21.4455 13.5745 21.4536 13.5923C21.468 13.6245 21.478 13.6509 21.4849 13.6719L21.4894 13.6868C21.4933 13.7 21.4957 13.7104 21.4973 13.718L21.4999 13.7334L21.4983 13.7432L21.4949 13.7573C21.4911 13.7717 21.4844 13.7925 21.4728 13.8201C21.4634 13.8425 21.4507 13.8694 21.4336 13.9006C21.3691 14.0188 21.2601 14.1689 21.0952 14.3428C20.7653 14.6904 20.2607 15.0813 19.6067 15.4485C18.2999 16.1819 16.4824 16.7734 14.4785 16.7734C12.4463 16.7734 10.501 16.2729 9.08178 15.5854C8.37109 15.241 7.8214 14.8635 7.4613 14.5051C7.08654 14.1318 6.99999 13.8655 6.99999 13.7339Z" fill="#1D1D1D"/>
</svg>

<svg viewBox="0 0 24 25" xmlns="http://www.w3.org/2000/svg">
  <path fill-rule="evenodd" clip-rule="evenodd" d="M16.754 12.325a.499.499 0 0 0 .025-.566.5.5 0 0 0-.689-.16 2.499 2.499 0 0 0-1.155 1.682 4.482 4.482 0 0 0-1.03-.239c-.632-.065-1.39.018-1.985.543a.5.5 0 0 0-.105.623c.46.808 1.754 1.825 3.46 1.737a.499.499 0 0 0 .2-.052c.137.208.294.386.463.52a.5.5 0 1 0 .625-.78c-.283-.226-.615-.833-.676-1.529-.06-.667.138-1.286.732-1.656a.502.502 0 0 0 .135-.123zm-2.347 1.835c.19.057.363.124.5.189.028.203.072.406.131.601a2.99 2.99 0 0 1-2.045-.847c.145-.047.303-.073.47-.079.11-.003.222.001.339.013.21.022.417.067.605.123z"/>
  <path d="M18.75 13.523a.5.5 0 1 0 0-1 .5.5 0 0 0 0 1z"/>
  <path fill-rule="evenodd" clip-rule="evenodd" d="M14.749 5.273c-1.649 0-3.387.544-4.76 1.198-.692.33-1.312.697-1.802 1.058-.461.34-.9.74-1.109 1.159a1.36 1.36 0 0 0 .089 1.412c.092.136.203.254.32.356.104.09.213.168.318.235a7.537 7.537 0 0 0-1.33 1.066c-.501-.06-1.064-.275-1.62-.588A7.616 7.616 0 0 1 3.28 9.993a.75.75 0 0 0-.982-.068c-.125.094-.24.2-.344.316a3.015 3.015 0 0 0-.372.518 3.912 3.912 0 0 0-.304.677 5.624 5.624 0 0 0-.275 1.987c.046 1.399.555 2.97 1.717 4.13a.75.75 0 0 0 1.106-.05l.09-.108.002-.002c.408-.49.82-.985 1.282-1.332.476-.357.886-.469 1.313-.326.03.01.062.018.094.024.061.056.125.11.191.164-.24.253-.5.55-.734.89a4.72 4.72 0 0 0-.51.932.75.75 0 0 0 .299.914c1.745 1.091 3.284 1.273 4.526.968a4.32 4.32 0 0 0 2.332-1.464c.577.072 1.169.11 1.768.11.381 0 .756-.018 1.124-.053l-.753 1.004a.5.5 0 0 0 .4.8c3.13 0 4.467-2.008 4.913-3.17l.178-.098c.752-.422 1.386-.9 1.842-1.38.424-.448.817-1.025.817-1.642a1.768 1.768 0 0 0-.166-.73 2.578 2.578 0 0 0-.075-.156 4.103 4.103 0 0 0-.553-.796c-.45-.519-1.077-1.051-1.83-1.53-.66-.42-1.43-.808-2.284-1.111a5.158 5.158 0 0 1-.033-.552c-.003-.12-.007-.253-.014-.409-.018-.398-.06-.89-.225-1.361-.17-.49-.478-.97-1.019-1.315-.529-.337-1.21-.5-2.052-.5zm1.58 13.646.688-.919c.568-.122 1.11-.28 1.617-.465-.466.585-1.195 1.155-2.305 1.384zm-5.462-1.104a13.054 13.054 0 0 1-2.44-.88l-.08-.039a8.846 8.846 0 0 1-.142-.072l-.127-.066a12.055 12.055 0 0 0-.507.551 5.341 5.341 0 0 0-.317.42c1.165.582 2.09.608 2.767.441a2.93 2.93 0 0 0 .846-.355zM4.12 12.477a6.8 6.8 0 0 0 1.483.63 1.94 1.94 0 0 0-.034 1.135c-.48.11-.906.347-1.27.619-.385.29-.736.647-1.039.99-.488-.747-.73-1.635-.757-2.477a4.132 4.132 0 0 1 .194-1.45c.041-.121.087-.228.135-.323.372.301.812.61 1.288.876zm5.145-2.76.02.007c.16-.071.384-.164.672-.267.608-.217 1.501-.479 2.668-.673 1.195-.2 2.405-.198 3.305-.15.227.013.437.028.623.044l-.006-.16c-.017-.366-.053-.677-.143-.935a.992.992 0 0 0-.41-.544c-.214-.137-.587-.266-1.245-.266-1.351 0-2.863.456-4.115 1.053-.304.144-.587.294-.844.445a8.21 8.21 0 0 0-.713.466 4.672 4.672 0 0 0-.375.304 1.855 1.855 0 0 0-.25.266c.048.045.132.109.267.182.178.096.38.174.546.229zM7 13.735c0-.144.098-.441.484-.86.368-.4.924-.828 1.634-1.22a11.39 11.39 0 0 1 5.36-1.38c1.98 0 3.784.681 5.093 1.514.654.416 1.164.857 1.501 1.246.105.12.188.231.253.33l.025.039.024.04c.014.021.026.043.037.064l.014.026a1.316 1.316 0 0 1 .06.139l.004.015a.396.396 0 0 1 .008.031l.003.015-.002.01-.003.014a.863.863 0 0 1-.061.143 2.216 2.216 0 0 1-.339.443c-.33.347-.834.738-1.488 1.105a10.69 10.69 0 0 1-5.128 1.325c-2.033 0-3.978-.5-5.397-1.188-.71-.344-1.26-.722-1.62-1.08-.375-.373-.462-.64-.462-.771z"/>
</svg>
